X: 66
T: Pollonesse #66
M: 3/4
L: 1/8
K: D
Q:120
D2 (3FED (3FED|F2 (3AGF (3AGF|(3AFA (3dAd (3fdf|(3ece d2 D2:|
(3ded ee (3cBA|(3dfd ee (3cBA|(3def (3gfe (3afd|(3gec d2D2:|

